Yaru++/actions/16/document-open-recent.svg

<svg height="16" width="16" xmlns="http://www.w3.org/2000/svg">
  <path d="m7.5 1c-1.978 0-3.77.769-5.11 2.018l-1.025-1.026a34.471 34.471 0 0 0 -.646 1.983 41.553 41.553 0 0 0 -.531 2.025c.669-.15 1.345-.325 2.03-.523.69-.203 1.349-.421 1.975-.655l-1.093-1.095a6.466 6.466 0 0 1 4.4-1.727c3.594 0 6.5 2.906 6.5 6.5s-2.906 6.5-6.5 6.5a6.49 6.49 0 0 1 -6.475-6h-1a7.488 7.488 0 0 0 7.475 7c4.147 0 7.5-3.353 7.5-7.5s-3.353-7.5-7.5-7.5zm-.5 3v5.207l2.396 2.397.708-.708-2.104-2.103v-4.793zm6.1 10.97.027.036-.014-.022-.013-.013zm-12.21.005c-.003.005-.01.009-.013.013l-.014.022z" fill="#808080"/>
</svg>

<svg xmlns="http://www.w3.org/2000/svg" width="16" height="16">
 <path fill="#808080" d="M7.5 1c-1.978 0-3.77.769-5.11 2.018L1.365 1.992a34.471 34.471 0 0 0-.646 1.983A41.553 41.553 0 0 0 .188 6c.669-.15 1.345-.325 2.03-.523.69-.203 1.349-.421 1.975-.655L3.1 3.727A6.466 6.466 0 0 1 7.5 2C11.094 2 14 4.906 14 8.5S11.094 15 7.5 15a6.49 6.49 0 0 1-6.475-6h-1A7.488 7.488 0 0 0 7.5 16c4.147 0 7.5-3.353 7.5-7.5S11.647 1 7.5 1zM7 4v5.207l2.396 2.397.708-.708L8 8.793V4zm6.1 10.97l.027.036-.014-.022-.013-.013zm-12.21.005c-.003.005-.01.009-.013.013l-.014.022z" font-family="Ubuntu" font-size="15" font-weight="400" letter-spacing="0" text-anchor="middle" word-spacing="0"/>
</svg>
